X:53
T:9. Gaillarde
C:Tielman Susato
B:Tielman Susato: Danserye (1551) no. 53
R:Galliard
Z:Transcribed by Frank Nordberg - http://www.musicaviva.com
F:http://abc.musicaviva.com/tunes/susato-tielman/susato-1551-53.abc
M:3/2
L:1/2
K:Ddor
V:1
DDD|C2A,|CDE|A,2A,|CDE|F2E-|ED2|^C2z:|
|:A,A,A,|A,>_B,C|D_B,2|A,2z:|
|:CDC|F2E|CDC/_B,/|A,>_B, C/D/|E/D/E/F/G|FDE|D2^C|D2z:|
V:2
A,A,A,|A,2A,|A,_B,C|C2C|A,A,C|C2C|A,2G,|A,2z:|
|:C,D,C,|C,F,E,|D,G,2|C,2z:|
|:A,A,A,|A,>F,G,|A,F,G,|C,2F,|E,2D,|DB,C|A,A,2|A,2z:|
V:3
F,F,F,|E,2F,|E,D,C,|C,2F,|E,F,G,|A,F,G,|E,F,D,|E,2z:|
|:F,F,F,|F,>E,C,|F,2E,|F,2z:|
|:F,F,F,|F,>D,E,|F,D,E,|F,>G,A,|G,>A,_B,|A,F,G,|F,E,2|D,2z:|
V:4
D,D,D,|A,,2D,|C,_B,,A,,|F,,2F,,|A,,D,C,|F,,2C,-|C,_B,,2|A,,2z:|
|:F,,F,,F,,|F,,>G,,A,,|_B,,G,,2|F,,2z:|
|:F,,F,,F,,|F,,2C,|A,,_B,,G,,|F,,2F,,|C,>_B,,G,,|D,2C,|D,A,,2|D,2z:|
W:
W:
W:  From Musica Viva - http://www.musicaviva.com
W:  the Internet center for free sheet music downloads.
